build/assets/img/stage-developers/image-element-4.svg

<svg width="118" height="85" viewBox="0 0 118 85" fill="none" xmlns="http://www.w3.org/2000/svg">
<g filter="url(#filter0_di)">
<path d="M108.36 2.00002H4.82583C3.28782 2.00002 2.04102 3.23441 2.04102 4.75711V76.2429C2.04102 77.7656 3.28782 79 4.82583 79H108.36C109.898 79 111.145 77.7656 111.145 76.2429V4.75711C111.145 3.23441 109.898 2.00002 108.36 2.00002Z" fill="url(#paint0_linear)"/>
<path d="M47.7734 33.0488C48.144 33.0488 48.4651 33.1833 48.7369 33.4524C49.0334 33.7214 49.1816 34.0516 49.1816 34.443V47.2482C49.1816 49.8655 48.5146 51.7979 47.1804 53.0454C46.1427 53.9993 44.7221 54.4763 42.9185 54.4763C41.4361 54.4763 40.0896 54.1339 38.879 53.449C38.4343 53.2043 38.2119 52.8864 38.2119 52.495C38.2119 52.0792 38.3107 51.7489 38.5084 51.5043C38.7308 51.2597 38.9778 51.1374 39.2496 51.1374C39.5214 51.1374 39.8055 51.1986 40.102 51.3209C40.8679 51.6878 41.6091 51.8835 42.3256 51.9079C43.042 51.9079 43.6227 51.859 44.0674 51.7612C44.5121 51.6389 44.9074 51.4187 45.2533 51.1007C46.0192 50.3669 46.4021 49.1561 46.4021 47.4683V34.443C46.4021 34.0761 46.538 33.7581 46.8098 33.489C47.0816 33.1955 47.4028 33.0488 47.7734 33.0488Z" fill="white"/>
<path d="M61.3002 51.9079C64.8332 51.9079 66.6121 50.7461 66.6368 48.4223C66.6368 47.4683 65.9574 46.71 64.5985 46.1474C64.0056 45.9028 63.3138 45.6827 62.5232 45.487C61.7573 45.2913 60.979 45.0834 60.1884 44.8633C59.3978 44.6431 58.6072 44.3985 57.8166 44.1294C57.026 43.8359 56.3342 43.469 55.7412 43.0287C54.4071 42.0258 53.7276 40.7049 53.7029 39.0661C53.7029 37.3049 54.3824 35.8617 55.7412 34.7365C57.1989 33.5135 59.1507 32.902 61.5967 32.902C63.8203 32.902 65.8215 33.2322 67.6004 33.8926C68.1686 34.0883 68.4651 34.4919 68.4898 35.1035C68.4898 35.397 68.3786 35.6783 68.1563 35.9473C67.9586 36.2164 67.7239 36.3509 67.4521 36.3509C67.2051 36.3509 66.8592 36.2776 66.4145 36.1308C65.0803 35.666 63.5732 35.4337 61.8932 35.4337C60.3367 35.4337 59.0519 35.7272 58.0389 36.3143C57.0013 36.9258 56.4824 37.7697 56.4824 38.8459C56.4824 39.9711 57.1495 40.8395 58.4837 41.451C59.1013 41.7201 59.7931 41.9524 60.559 42.1481C61.3249 42.3194 62.1155 42.5028 62.9308 42.6985C63.7462 42.8942 64.5244 43.1388 65.2656 43.4323C66.0315 43.7014 66.7233 44.0438 67.341 44.4597C68.6751 45.4136 69.3545 46.8079 69.3793 48.6424C69.3793 50.3547 68.6751 51.7489 67.2668 52.8252C65.8339 53.9259 63.9438 54.4763 61.5967 54.4763C59.0272 54.4763 56.6183 53.9993 54.37 53.0454C54.1477 52.9475 53.95 52.7885 53.7771 52.5684C53.6041 52.3238 53.5176 52.0547 53.5176 51.7612C53.5176 51.4676 53.6288 51.1986 53.8512 50.954C54.0735 50.6849 54.3206 50.5504 54.5924 50.5504C54.8889 50.5504 55.2471 50.6482 55.6671 50.8439C56.1118 51.0396 56.8283 51.272 57.8166 51.541C58.8048 51.7856 59.9661 51.9079 61.3002 51.9079Z" fill="white"/>
<path d="M112 13.4347C112 13.6162 87.3722 13.7776 57 13.7776C26.6278 13.7776 2 13.6162 2 13.4347C2 13.2532 26.6278 13.0919 57 13.0919C87.3722 13.0919 112 13.3137 112 13.4347Z" fill="white"/>
<path d="M24.1077 9.44065C25.2035 9.44065 26.0919 8.67108 26.0919 7.72177C26.0919 6.77246 25.2035 6.0029 24.1077 6.0029C23.0119 6.0029 22.1235 6.77246 22.1235 7.72177C22.1235 8.67108 23.0119 9.44065 24.1077 9.44065Z" fill="white"/>
<path d="M8.20146 9.44065C9.29729 9.44065 10.1856 8.67108 10.1856 7.72177C10.1856 6.77246 9.29729 6.0029 8.20146 6.0029C7.10563 6.0029 6.21729 6.77246 6.21729 7.72177C6.21729 8.67108 7.10563 9.44065 8.20146 9.44065Z" fill="white"/>
<path d="M16.6346 9.44065C17.7304 9.44065 18.6187 8.67108 18.6187 7.72177C18.6187 6.77246 17.7304 6.0029 16.6346 6.0029C15.5387 6.0029 14.6504 6.77246 14.6504 7.72177C14.6504 8.67108 15.5387 9.44065 16.6346 9.44065Z" fill="white"/>
</g>
<defs>
<filter id="filter0_di" x="0" y="1.52588e-05" width="118" height="85" filterUnits="userSpaceOnUse" color-interpolation-filters="sRGB">
<feFlood flood-opacity="0" result="BackgroundImageFix"/>
<feColorMatrix in="SourceAlpha" type="matrix" values="0 0 0 0 0 0 0 0 0 0 0 0 0 0 0 0 0 0 127 0"/>
<feOffset dx="2" dy="2"/>
<feGaussianBlur stdDeviation="2"/>
<feColorMatrix type="matrix" values="0 0 0 0 0 0 0 0 0 0 0 0 0 0 0 0 0 0 0.15 0"/>
<feBlend mode="normal" in2="BackgroundImageFix" result="effect1_dropShadow"/>
<feBlend mode="normal" in="SourceGraphic" in2="effect1_dropShadow" result="shape"/>
<feColorMatrix in="SourceAlpha" type="matrix" values="0 0 0 0 0 0 0 0 0 0 0 0 0 0 0 0 0 0 127 0" result="hardAlpha"/>
<feOffset dx="-2" dy="-2"/>
<feGaussianBlur stdDeviation="2"/>
<feComposite in2="hardAlpha" operator="arithmetic" k2="-1" k3="1"/>
<feColorMatrix type="matrix" values="0 0 0 0 0 0 0 0 0 0 0 0 0 0 0 0 0 0 0.2 0"/>
<feBlend mode="normal" in2="shape" result="effect2_innerShadow"/>
</filter>
<linearGradient id="paint0_linear" x1="107.781" y1="40.5" x2="5.31696" y2="37.3827" gradientUnits="userSpaceOnUse">
<stop stop-color="#A62E41"/>
<stop offset="1" stop-color="#E13152"/>
</linearGradient>
</defs>
</svg>

<svg width="118" height="85" fill="none" xmlns="http://www.w3.org/2000/svg"><g filter="url(#filter0_di)"><path d="M108.36 2H4.826C3.288 2 2.04 3.234 2.04 4.757v71.486C2.041 77.766 3.288 79 4.826 79H108.36c1.538 0 2.785-1.234 2.785-2.757V4.757c0-1.523-1.247-2.757-2.785-2.757z" fill="url(#paint0_linear)"/><path d="M47.773 33.049c.371 0 .692.134.964.403.296.27.445.6.445.991v12.805c0 2.617-.667 4.55-2.002 5.797-1.037.954-2.458 1.431-4.261 1.431-1.483 0-2.83-.342-4.04-1.027-.445-.245-.667-.563-.667-.954 0-.416.099-.746.296-.99.223-.245.47-.368.742-.368.271 0 .556.062.852.184.766.367 1.507.563 2.224.587.716 0 1.297-.049 1.741-.147a2.84 2.84 0 001.186-.66c.766-.734 1.15-1.945 1.15-3.633V34.443c0-.367.135-.685.407-.954.272-.293.593-.44.963-.44zM61.3 51.908c3.533 0 5.312-1.162 5.337-3.486 0-.954-.68-1.712-2.038-2.275a14.806 14.806 0 00-2.076-.66 116.37 116.37 0 01-2.335-.624c-.79-.22-1.58-.465-2.371-.734a8.309 8.309 0 01-2.076-1.1c-1.334-1.003-2.013-2.324-2.038-3.963 0-1.761.68-3.204 2.038-4.33 1.458-1.222 3.41-1.834 5.856-1.834 2.223 0 4.224.33 6.003.99.569.196.865.6.89 1.211 0 .294-.111.575-.334.844-.197.27-.432.404-.704.404-.247 0-.593-.073-1.037-.22-1.335-.465-2.842-.697-4.522-.697-1.556 0-2.841.293-3.854.88-1.038.612-1.557 1.456-1.557 2.532 0 1.125.668 1.994 2.002 2.605.617.27 1.31.501 2.075.697.766.171 1.556.355 2.372.55.815.196 1.593.44 2.335.734.765.27 1.457.612 2.075 1.028 1.334.954 2.014 2.348 2.038 4.182 0 1.713-.704 3.107-2.112 4.183-1.433 1.1-3.323 1.651-5.67 1.651-2.57 0-4.979-.477-7.227-1.43a1.551 1.551 0 01-.593-.478 1.367 1.367 0 01-.26-.807c0-.293.112-.562.334-.807.223-.27.47-.404.741-.404.297 0 .655.098 1.075.294.445.196 1.161.428 2.15.697.988.245 2.15.367 3.483.367zM112 13.435c0 .181-24.628.343-55 .343s-55-.162-55-.343c0-.182 24.628-.343 55-.343s55 .222 55 .343zM24.108 9.44c1.095 0 1.984-.769 1.984-1.718 0-.95-.889-1.72-1.984-1.72-1.096 0-1.985.77-1.985 1.72s.889 1.719 1.985 1.719zm-15.907 0c1.096 0 1.985-.769 1.985-1.718 0-.95-.889-1.72-1.985-1.72-1.095 0-1.984.77-1.984 1.72S7.106 9.44 8.201 9.44zm8.434 0c1.095 0 1.984-.769 1.984-1.718 0-.95-.889-1.72-1.984-1.72-1.096 0-1.985.77-1.985 1.72s.889 1.719 1.985 1.719z" fill="#fff"/></g><defs><linearGradient id="paint0_linear" x1="107.781" y1="40.5" x2="5.317" y2="37.383" gradientUnits="userSpaceOnUse"><stop stop-color="#A62E41"/><stop offset="1" stop-color="#E13152"/></linearGradient><filter id="filter0_di" x="0" y="0" width="118" height="85" filterUnits="userSpaceOnUse" color-interpolation-filters="sRGB"><feFlood flood-opacity="0" result="BackgroundImageFix"/><feColorMatrix in="SourceAlpha" values="0 0 0 0 0 0 0 0 0 0 0 0 0 0 0 0 0 0 127 0"/><feOffset dx="2" dy="2"/><feGaussianBlur stdDeviation="2"/><feColorMatrix values="0 0 0 0 0 0 0 0 0 0 0 0 0 0 0 0 0 0 0.15 0"/><feBlend in2="BackgroundImageFix" result="effect1_dropShadow"/><feBlend in="SourceGraphic" in2="effect1_dropShadow" result="shape"/><feColorMatrix in="SourceAlpha" values="0 0 0 0 0 0 0 0 0 0 0 0 0 0 0 0 0 0 127 0" result="hardAlpha"/><feOffset dx="-2" dy="-2"/><feGaussianBlur stdDeviation="2"/><feComposite in2="hardAlpha" operator="arithmetic" k2="-1" k3="1"/><feColorMatrix values="0 0 0 0 0 0 0 0 0 0 0 0 0 0 0 0 0 0 0.2 0"/><feBlend in2="shape" result="effect2_innerShadow"/></filter></defs></svg>
